svgs/smart_autoclicker.svg

<svg width="192" height="192" viewBox="0 0 192 192" fill="none" xmlns="http://www.w3.org/2000/svg">
<path d="M124.829 114.289V102.753V43.066M100.157 142.377H88.1194H58.1336C53.6276 142.377 50 138.75 50 134.244V120.308M50 43.066V30.1336C50 25.6276 53.6276 22 58.1336 22H116.695C121.201 22 124.829 25.6276 124.829 30.1336V43.066M50 43.066H124.829M50 43.066V120.308M50 120.308H96.1446" stroke="black" stroke-width="12" stroke-linejoin="round"/>
<path d="M106.811 107.328C107.557 106.63 108.259 105.869 108.907 105.045C115.792 96.3023 115.792 84.9982 108.907 76.255C100.391 65.4411 82.7395 65.4411 74.2236 76.255C67.3384 84.9982 67.3384 96.3023 74.2236 105.045C78.7968 110.853 86.0046 113.541 93.0174 113.112M82.1367 158.05L110.844 171.208C112.913 172.156 115.271 172.257 117.413 171.489L150.957 159.464C152.005 159.088 152.957 158.485 153.744 157.698C154.855 156.587 155.591 155.156 155.85 153.606L155.916 153.208C156.09 152.167 156.072 151.103 155.865 150.068L150.823 124.857C150.528 123.381 149.803 122.026 148.739 120.962C147.902 120.125 146.882 119.495 145.76 119.121L144.01 118.538C143.412 118.338 142.794 118.205 142.168 118.139L116.615 115.449C115.899 115.373 115.176 115.483 114.514 115.766C112.298 116.716 109.739 115.617 108.902 113.357L98.4629 85.1707C97.0586 81.3789 92.849 79.4404 89.0547 80.8383C85.2369 82.2448 83.2951 86.4916 84.7286 90.2994L104.078 141.696C104.734 143.44 103.603 145.342 101.757 145.596L88.5045 147.424C85.8537 147.79 83.518 149.353 82.1697 151.665L80.8382 153.947C79.9733 155.43 80.5763 157.335 82.1367 158.05Z" stroke="black" stroke-width="8" stroke-linejoin="round"/>
</svg>

<svg width="192" height="192" viewBox="0 0 192 192" fill="none" xmlns="http://www.w3.org/2000/svg"><path d="M124.829 114.289V43.066m-24.672 99.311H58.134A8.115 8.115 0 0 1 50 134.244v-13.936m0-77.242V30.134A8.116 8.116 0 0 1 58.134 22h58.561a8.116 8.116 0 0 1 8.134 8.134v12.932m-74.829 0h74.829m-74.829 0v77.242m0 0h46.145" stroke="#000" stroke-width="12" stroke-linejoin="round"/><path d="M106.811 107.328a20.37 20.37 0 0 0 2.096-2.283c6.885-8.743 6.885-20.047 0-28.79-8.516-10.814-26.167-10.814-34.683 0-6.886 8.743-6.886 20.047 0 28.79 4.573 5.808 11.78 8.496 18.793 8.067m-10.88 44.938 28.707 13.158a8.712 8.712 0 0 0 6.569.281l33.544-12.025a7.544 7.544 0 0 0 4.893-5.858l.066-.398a8.699 8.699 0 0 0-.051-3.14l-5.042-25.211a7.62 7.62 0 0 0-5.063-5.736l-1.75-.583a8.675 8.675 0 0 0-1.842-.399l-25.553-2.69a4.213 4.213 0 0 0-2.101.317 4.214 4.214 0 0 1-5.612-2.409l-10.44-28.186a7.33 7.33 0 1 0-13.733 5.128l19.349 51.397a2.904 2.904 0 0 1-2.321 3.9l-13.253 1.828a8.712 8.712 0 0 0-6.334 4.241l-1.332 2.282a2.904 2.904 0 0 0 1.299 4.103Z" stroke="#000" stroke-width="8" stroke-linejoin="round"/></svg>
